X:1
T:Title
%%score { ( 1 3 ) | 2 }
L:1/8
Q:1/4=106
M:4/4
K:Eb
V:1 treble nm="Grand Piano"
V:3 treble 
V:2 bass 
V:1
 [EG]2 [GB]2 [FA]2 [Ac]2 | [EGB]2 [EGe]2 [EBd]2 [Ac]2 | [B,GB]3 [Ec] [B,EB][B,EB][B,DA][B,EG] | %3
w: Wm.~Cassell * * *|||
 [B,DF]6 z2 | [B,EG]2 [B,GB]2 [B,FA]2 [Ac]2 | B2 e2 d2 c2 | B3 B [Ac][AB][Ac][Ad] | [Ge]6 z2 | %8
w: |||||
 [EG]2 [Ge]2 d2 G2 | F2 c2 B2 E2 | c3 c BBAG | [DF]6 z2 | G3 G GG[EG][EG] | %13
w: |||||
 [EA]2 [EA]2 [E=A]2 [EA]2 | [EB]2 [EG]2 [DF]3 E |[M:3/4] E6 |[M:1/4] Gc |[M:4/4] B6 z2 | %18
w: |||||
 [Ge]4 [GB]2 Gc | B6 z2 | [Ge]6 [GB][GB] | [Ge]3 [Ge] [Bd]2 [Ac]2 | [GB]2 G2 E2 [EF]2 | %23
w: |||||
[M:19/16] .[EG]3/2 z/ z/ z/ z/ z/ z/ z/ z/4 G/4F/-F/-F-<FE |[M:4/4] E6 z2 |] %25
w: ||
V:2
 [E,B,]2 [E,B,]2 [F,B,]2 [F,B,]2 | G,2 G,2 A,2 A,2 | E,3 A, G,G,F,E, | B,,6 z2 | %4
 E,2 E,2 F,2 [F,B,]2 | [G,EG]2 [G,EG]2 [A,EB]2 [A,EA]2 | %6
 [B,EG]3 [B,G][K:bass] [B,,B,][B,,B,][B,,B,][B,,B,] | [E,B,]6 z2 | %8
 [C,C]2 [C,C]2[K:treble] [G,=B,F]2 [G,B,F]2 | [A,C]2 [A,E]2 [G,B,E]2[K:bass] [G,B,]2 | %10
 [A,E]3 [A,E] [G,B,E][G,B,E][F,B,D][E,B,E] | [B,,B,]6 z2 | %12
 [E,B,E]3 [E,B,E] [E,B,E][E,B,E][_D,B,][D,B,] | [C,A,]2 [C,A,]2 [=B,,_G,]2 [B,,G,]2 | %14
 [B,,G,]2 [B,,B,]2 [B,,A,]3 [E,G,] |[M:3/4] [E,G,]6 |[M:1/4] z2 | %17
[M:4/4] z2 [B,,B,][B,,A,] [B,,B,][B,,B,][B,,B,][B,,B,] | [E,B,]4 [E,E]2 z2 | %19
 z2 [B,,A,][B,,B,] [B,,B,][B,,B,][B,,B,][B,,B,] | [E,B,]6 [E,E][E,E] | %21
 [E,B,]3 [E,B,] [E,C]2 [E,D]2 | [E,E]2 [E,B,E]2 [C,=A,]2 [C,A,]2 | %23
[M:19/16] [B,,B,][B,,G,]/-[B,,G,]/-[B,,G,]/-[B,,G,]/-[B,,G,]/-[B,,G,]-<[B,,G,][B,,A,B,]/-[B,,A,B,]/-[B,,A,B,]-<[B,,A,B,][E,G,B,] | %24
[M:4/4] [E,G,B,]6 z2 |] %25
V:3
 x8 | x8 | x8 | x8 | x8 | x8 | x8 | x8 | x8 | x8 | x8 | x8 | x8 | x8 | x8 |[M:3/4] x6 |[M:1/4] x2 | %17
[M:4/4] z2 AA A[AB][Ac][Ad] | x8 | z2 AA A[AB][Ac][Ad] | x8 | x8 | x8 | %23
[M:19/16] z [B,E]/-[B,E]/-[B,E]/-[B,E]/-[B,E]/-[B,E]-<[B,E] z/ z/ z/ z/ z/ z/ z |[M:4/4] x8 |] %25

